fs/food_chicken_leg_32_filled.svg

<svg viewBox="0 0 32 32" fill="none" xmlns="http://www.w3.org/2000/svg" height="1em" width="1em">
  <path d="M29.9999 10.5C29.9999 5.80558 26.1944 2 21.4999 2C17.3288 2 13.8612 5.00347 13.1383 8.96561C12.361 11.3316 11.671 12.6609 11.2773 13.3084L7.29284 17.2929C7.00684 17.5789 6.92129 18.009 7.07607 18.3826C7.23085 18.7563 7.59549 19 7.99995 19H8.10837L5.08438 22.0239C3.3454 22.2277 1.99609 23.7063 1.99609 25.5C1.99609 26.6334 2.53591 27.6411 3.36834 28.2791C3.50317 28.3825 3.62536 28.5042 3.72921 28.6386C4.36762 29.4648 5.37154 30 6.5 30C8.29699 30 9.77768 28.6457 9.97715 26.9021L12.9999 23.8793V24C12.9999 24.4044 13.2436 24.7691 13.6173 24.9238C13.9909 25.0786 14.4211 24.9931 14.7071 24.7071L18.6935 20.7206C19.3466 20.3255 20.6854 19.634 23.0654 18.856C27.0121 18.1206 29.9999 14.6603 29.9999 10.5ZM10.9368 19H12.9999V21.0509L8.31718 25.7337C8.1089 25.942 8 26.2198 8 26.5C8 27.3284 7.32843 28 6.5 28C6.01718 28 5.58784 27.773 5.31184 27.4158C5.10226 27.1445 4.85703 26.9002 4.58498 26.6917C4.22509 26.4159 3.99609 25.9849 3.99609 25.5C3.99609 24.6718 4.66726 24.0004 5.49534 24C5.77761 24.0003 6.04847 23.8883 6.24814 23.6886L10.9368 19Z" fill="#212121"/>
</svg>

<svg viewBox="0 0 32 32" fill="none" xmlns="http://www.w3.org/2000/svg" height="1em" width="1em">
  <path d="M30 10.5a8.5 8.5 0 0 0-16.862-1.534c-.777 2.366-1.467 3.695-1.86 4.342l-3.985 3.985A1 1 0 0 0 8 19h.108l-3.024 3.024a3.5 3.5 0 0 0-1.716 6.255c.135.104.257.225.361.36a3.5 3.5 0 0 0 6.248-1.736L13 23.878V24a1 1 0 0 0 1.707.707l3.986-3.986c.654-.395 1.992-1.087 4.372-1.865A8.502 8.502 0 0 0 30 10.5ZM10.937 19H13v2.05l-4.683 4.684A1.084 1.084 0 0 0 8 26.5a1.5 1.5 0 0 1-2.688.916 3.978 3.978 0 0 0-.727-.724A1.5 1.5 0 0 1 5.495 24c.283 0 .553-.112.753-.311L10.937 19Z" fill="#212121"/>
</svg>
